assets/svg/home.svg

<?xml version="1.0" standalone="no"?><!DOCTYPE svg PUBLIC "-//W3C//DTD SVG 1.1//EN" "http://www.w3.org/Graphics/SVG/1.1/DTD/svg11.dtd"><svg t="1630571979817" class="icon" viewBox="0 0 1024 1024" version="1.1" xmlns="http://www.w3.org/2000/svg" p-id="1310" xmlns:xlink="http://www.w3.org/1999/xlink" width="200" height="200"><defs><style type="text/css"></style></defs><path d="M929.762738 381.063429l-159.859544-148.511095a292.499876 292.499876 0 0 0-394.977225-3.626384L205.339183 380.850112a154.867933 154.867933 0 0 0-51.196011 115.191025v362.638411a126.582137 126.582137 0 0 0 125.98485 127.13676h572.840699a126.582137 126.582137 0 0 0 125.984851-127.13676v-364.216955a154.398636 154.398636 0 0 0-49.190834-113.399164z" fill="#557FFC" p-id="1311"></path><path d="M934.797012 447.57558l-143.60481-132.256362a264.512723 264.512723 0 0 0-354.788357-3.242414l-152.308132 135.242796a137.333299 137.333299 0 0 0-46.161737 102.733328v322.748186a113.228511 113.228511 0 0 0 113.228511 113.228511h514.818554a113.228511 113.228511 0 0 0 113.228511-113.228511v-324.241403a137.162646 137.162646 0 0 0-44.369876-100.984131z" fill="#4876FF" p-id="1312"></path><path d="M939.959277 516.220898L812.950506 399.323339a233.923107 233.923107 0 0 0-313.703557-2.858444l-134.688172 119.457359a121.462536 121.462536 0 0 0-40.828819 90.787593v285.332435a100.130865 100.130865 0 0 0 100.130865 100.130865h455.217864a100.130865 100.130865 0 0 0 100.130865-100.130865v-286.441682a121.419873 121.419873 0 0 0-39.207612-89.294376z" fill="#3E6EFF" p-id="1313"></path><path d="M836.628661 1024H187.121935A180.721919 180.721919 0 0 1 6.613333 843.491398v-407.136277a211.226209 211.226209 0 0 1 70.906476-157.854368L296.724062 83.913248a330.470251 330.470251 0 0 1 444.509366 4.010355l207.770477 191.259764a211.482189 211.482189 0 0 1 68.261348 155.251903v408.885475a180.636592 180.636592 0 0 1-180.508602 180.508602z m-319.975068-948.448767A255.596085 255.596085 0 0 0 346.640173 140.356851L127.435919 334.944356a135.584102 135.584102 0 0 0-45.56445 101.368101v407.008288a105.207803 105.207803 0 0 0 105.079813 105.079812h649.549389a105.207803 105.207803 0 0 0 105.079813-105.079812v-408.842811a136.010736 136.010736 0 0 0-43.729926-99.746895l-207.770478-191.259764a255.340105 255.340105 0 0 0-173.383824-67.920042z" fill="#262E49" p-id="1314"></path><path d="M503.427957 794.001921a185.20157 185.20157 0 1 1 185.201569-185.20157 185.414886 185.414886 0 0 1-185.201569 185.20157z m0-294.377063a109.218157 109.218157 0 1 0 109.218156 109.218156 109.346147 109.346147 0 0 0-109.218156-109.303483z" fill="#262E49" p-id="1315"></path></svg>

<svg class="icon" viewBox="0 0 1024 1024" xmlns="http://www.w3.org/2000/svg" width="200" height="200"><defs/><path d="M929.763 381.063l-159.86-148.51a292.5 292.5 0 00-394.977-3.627L205.339 380.85a154.868 154.868 0 00-51.196 115.191V858.68a126.582 126.582 0 00125.985 127.136h572.84A126.582 126.582 0 00978.955 858.68V494.463a154.399 154.399 0 00-49.191-113.4z" fill="#557FFC"/><path d="M934.797 447.576L791.192 315.319a264.513 264.513 0 00-354.788-3.242L284.096 447.32a137.333 137.333 0 00-46.162 102.733V872.8A113.229 113.229 0 00351.162 986.03h514.819A113.229 113.229 0 00979.21 872.8V548.56a137.163 137.163 0 00-44.37-100.984z" fill="#4876FF"/><path d="M939.96 516.22L812.95 399.324a233.923 233.923 0 00-313.703-2.858L364.559 515.922a121.463 121.463 0 00-40.829 90.788v285.332a100.13 100.13 0 00100.13 100.131H879.08a100.13 100.13 0 00100.13-100.13V605.6a121.42 121.42 0 00-39.207-89.295z" fill="#3E6EFF"/><path d="M836.629 1024H187.122A180.722 180.722 0 016.613 843.491V436.355A211.226 211.226 0 0177.52 278.501L296.724 83.913a330.47 330.47 0 01444.51 4.01l207.77 191.26a211.482 211.482 0 0168.261 155.252v408.886a180.637 180.637 0 01-180.508 180.508zM516.654 75.551a255.596 255.596 0 00-170.014 64.806L127.436 334.944A135.584 135.584 0 0081.87 436.312v407.009a105.208 105.208 0 00105.08 105.08h649.55a105.208 105.208 0 00105.08-105.08V434.478a136.01 136.01 0 00-43.73-99.747l-207.77-191.26a255.34 255.34 0 00-173.385-67.92z" fill="#262E49"/><path d="M503.428 794.002A185.202 185.202 0 11688.63 608.8a185.415 185.415 0 01-185.202 185.202zm0-294.377a109.218 109.218 0 10109.218 109.218A109.346 109.346 0 00503.428 499.54z" fill="#262E49"/></svg>
